X: 22435
T: Lads O The Fair
R: reel
M: 4/4
K: Dmajor
E2|EE3 E2F2|G2E4 FE|D2dd- d2c2|B2A4 Bc|
d2c2 B2AB-|B2c2 d2B2|1 A2F2DF3|F2E4:|2 A2F2 E3D|D6||
FE|D2d2 d3c|(BA)Bc d4|D2dd d2cc|BA3 (FE)D2|
D2d2 d2c2|(BA)(Bc) d4|D2d2 d2cc|BA3 (FE)D2|
f2e2 d2AA|B2c2 d4|D2d2 d2AA|B2A4 D2|
GGGB A2F2|E2FE D2FF|(GA)(Bc) d2F2|E2D4||

